build/svg/cmd/lc_outputqualityblackwhite.svg

<?xml version="1.0" encoding="UTF-8" standalone="no"?>
<svg
   xmlns:dc="http://purl.org/dc/elements/1.1/"
   xmlns:cc="http://creativecommons.org/ns#"
   xmlns:rdf="http://www.w3.org/1999/02/22-rdf-syntax-ns#"
   xmlns:svg="http://www.w3.org/2000/svg"
   xmlns="http://www.w3.org/2000/svg"
   xmlns:sodipodi="http://sodipodi.sourceforge.net/DTD/sodipodi-0.dtd"
   xmlns:inkscape="http://www.inkscape.org/namespaces/inkscape"
   viewBox="0 0 24 24"
   version="1.1"
   id="svg4"
   sodipodi:docname="lc_outputqualityblackwhite.svg"
   inkscape:export-filename="/home/jupiter007/Libreoffice yaru theme fullcolor/build/cmd/lc_outputqualityblackwhite.png"
   inkscape:export-xdpi="96"
   inkscape:export-ydpi="96"
   inkscape:version="0.92.5 (2060ec1f9f, 2020-04-08)">
  <metadata
     id="metadata10">
    <rdf:RDF>
      <cc:Work
         rdf:about="">
        <dc:format>image/svg+xml</dc:format>
        <dc:type
           rdf:resource="http://purl.org/dc/dcmitype/StillImage" />
      </cc:Work>
    </rdf:RDF>
  </metadata>
  <defs
     id="defs8" />
  <sodipodi:namedview
     pagecolor="#ffffff"
     bordercolor="#666666"
     borderopacity="1"
     objecttolerance="10"
     gridtolerance="10"
     guidetolerance="10"
     inkscape:pageopacity="0"
     inkscape:pageshadow="2"
     inkscape:window-width="1920"
     inkscape:window-height="1011"
     id="namedview6"
     showgrid="false"
     inkscape:zoom="9.8333333"
     inkscape:cx="0.66101695"
     inkscape:cy="12"
     inkscape:window-x="0"
     inkscape:window-y="32"
     inkscape:window-maximized="1"
     inkscape:current-layer="svg4" />
  <path
     sodipodi:nodetypes="cccscsccccccccscscccccc"
     inkscape:connector-curvature="0"
     id="path4237-1"
     d="m 6.9941158,3.9998199 c -1.2582,0.0145 -2.178891,-0.030604 -2.9316409,0.3847656 -0.3763699,0.20766 -0.6732309,0.5593869 -0.837891,0.9980469 -0.16467,0.4386699 -0.224609,0.9595874 -0.224609,1.6171874 V 8.4881005 17.00018 c 0,0.65761 0.0599,1.178577 0.224609,1.617188 0.16468,0.438611 0.461531,0.788524 0.837891,0.996093 0.75272,0.41513 1.673541,0.371649 2.9316409,0.386719 h 0.002 10.0058592 0.0039 c 1.25819,-0.0145 2.178891,0.0306 2.931641,-0.384766 0.37637,-0.20766 0.673221,-0.559386 0.837891,-0.998046 0.164539,-0.438671 0.224618,-0.959578 0.224618,-1.617188 V 8.4666165 6.9998198 c 0,-0.6576 -0.0599,-1.1785775 -0.224609,-1.6171874 -0.16468,-0.4386 -0.461531,-0.7885338 -0.837891,-0.9960937 -0.75277,-0.41513 -1.673601,-0.3716388 -2.931691,-0.3867188 h -0.002 -10.0058591 z"
     style="font-style:normal;font-variant:normal;font-weight:normal;font-stretch:normal;font-size:15px;line-height:125%;font-family:Ubuntu;-inkscape-font-specification:Ubuntu;text-align:center;letter-spacing:0px;word-spacing:0px;writing-mode:lr-tb;text-anchor:middle;display:inline;opacity:0.6;fill:#000000;fill-opacity:1;stroke:none;stroke-width:0.99980211" />
  <path
     inkscape:connector-curvature="0"
     id="path1993"
     d="m 11.983344,5.0270047 c -1.556581,0.010796 -5.1099902,-0.011752 -6.6599412,0.038775 -0.461229,0.042668 -1.0161879,0.2064194 -1.1553399,0.7099667 -0.218994,0.6353464 -0.108414,1.3337872 -0.145796,1.9819241 -0.0078,2.2970845 -0.02297,7.5962065 0.02152,9.8855575 0.0391,0.46193 0.202551,1.012666 0.698756,1.163666 0.6324559,0.225082 1.2841439,0.12274 1.9359739,0.154298 1.424235,0.0068 4.8505632,0.01102 6.2764202,0.01131 1.704531,3.5e-4 3.408388,-0.005 5.10719,-0.01851 0.511911,-0.01201 1.183699,0.01993 1.584745,-0.405191 0.421097,-0.539783 0.287073,-1.268021 0.322745,-1.903787 0.01187,-2.444323 0.02769,-7.9108735 -0.0219,-10.3565727 C 19.898441,5.886402 19.777725,5.4254903 19.372578,5.2439672 18.704409,4.9498698 17.946373,5.0759483 17.246657,5.0383945 15.49225,5.0265919 13.737783,5.0259101 11.983344,5.0270047 Z"
     style="opacity:1;vector-effect:none;fill:#ffffff;fill-opacity:1;stroke:none;stroke-width:1;stroke-linecap:round;stroke-linejoin:bevel;stroke-miterlimit:4;stroke-dasharray:none;stroke-dashoffset:0;stroke-opacity:1"
     sodipodi:nodetypes="cccccccsccccccc" />
  <path
     style="color:#000000;display:inline;overflow:visible;visibility:visible;opacity:1;fill:#000000;fill-opacity:1;fill-rule:nonzero;stroke:none;stroke-width:18.28524208;marker:none;enable-background:accumulate"
     d="M 8.9833439,9.9998195 5.9833438,16 H 16.983344 l -3.5,-4.00018 -1.5,2 z"
     id="path1099"
     inkscape:connector-curvature="0"
     sodipodi:nodetypes="cccccc" />
  <path
     style="opacity:1;vector-effect:none;fill:#000000;fill-opacity:1;stroke:none;stroke-width:3;stroke-linecap:round;stroke-linejoin:bevel;stroke-miterlimit:4;stroke-dasharray:none;stroke-dashoffset:0;stroke-opacity:1"
     id="path3397"
     sodipodi:type="arc"
     sodipodi:cx="15.485262"
     sodipodi:cy="9.4913454"
     sodipodi:rx="1.5"
     sodipodi:ry="1.5"
     sodipodi:start="6.2325882"
     sodipodi:end="6.2319424"
     sodipodi:open="true"
     d="M 16.983342,9.4154821 A 1.5,1.5 0 0 1 15.561367,10.989413 1.5,1.5 0 0 1 13.987206,9.5676924 1.5,1.5 0 0 1 15.408673,7.993302 1.5,1.5 0 0 1 16.983293,9.4145147" />
</svg>

<svg xmlns="http://www.w3.org/2000/svg" viewBox="0 0 24 24"><path d="M6.994 4c-1.258.014-2.179-.03-2.932.385a1.88 1.88 0 00-.837.998C3.06 5.82 3 6.343 3 7v10c0 .658.06 1.179.225 1.617.164.439.461.789.837.996.753.416 1.674.372 2.932.387h10.012c1.258-.014 2.179.03 2.932-.385a1.88 1.88 0 00.837-.998c.165-.438.225-.96.225-1.617V7c0-.658-.06-1.179-.225-1.617a1.875 1.875 0 00-.837-.996c-.753-.416-1.674-.372-2.932-.387H6.998z" style="line-height:125%;-inkscape-font-specification:Ubuntu;text-align:center" font-weight="400" font-size="15" font-family="Ubuntu" letter-spacing="0" word-spacing="0" text-anchor="middle" opacity=".6"/><path d="M11.983 5.027c-1.556.01-5.11-.012-6.66.039-.46.042-1.016.206-1.155.71-.219.635-.108 1.334-.146 1.982-.008 2.297-.023 7.596.022 9.885.039.462.202 1.013.699 1.164.632.225 1.284.123 1.936.154 1.424.007 4.85.011 6.276.012 1.704 0 3.408-.005 5.107-.019.512-.012 1.184.02 1.585-.405.421-.54.287-1.268.323-1.904.011-2.444.027-7.91-.022-10.357-.05-.402-.17-.863-.575-1.044-.669-.294-1.427-.168-2.126-.206a715.985 715.985 0 00-5.264-.011z" fill="#fff"/><path style="marker:none" d="M8.983 10l-3 6h11l-3.5-4-1.5 2z" color="#000" overflow="visible"/><path d="M16.983 9.415a1.5 1.5 0 01-1.422 1.574 1.5 1.5 0 01-1.574-1.421 1.5 1.5 0 011.422-1.575 1.5 1.5 0 011.574 1.422"/></svg>
